!!!OTL: DIE WELT IST NICHTS ALS EIN ORCHESTER
!!!ARE: Europa, Mitteleuropa, Deutschland
!!!SCT: F0122
!!!YEM: Copyright 1995, estate of Helmut Schaffrath.
**kern
*ICvox
*Ivox
*M3/4
*k[b-e-]
*B-:
{8f
8g
8a
=1
4.b-
8b-
8cc
8cc
=2
4dd
4b-
8cc
8cc
=3
4dd
4b-}
{4dd
=4
8.cc
16dd
8cc
8b-
8a
8g
=5
4f
4r}
{4dd
=6
8.cc
16dd
8cc
8b-
8a
8g
=7
4f
8r}
{8f
8g
8a
=8
4.b-
8b-
8cc
8cc
=9
4dd
4b-
8cc
8cc
=10
4dd
4b-}
{4dd
=11
8.cc
16dd
8cc
8b-
8a
8g
=12
4f
4r}
{4dd
=13
8.cc
16dd
8cc
8b-
8a
8g
=14
4f
8r}
{8f
8.f
16f
=15
4.b-
8f
8g
8a-
=16
4g
4e-
8r}
{8b-
=17
8.a
16f
8b-
8f
8b-
8dd
=18
4.cc}
{8f
8g
8a
=19
4.b-
8b-
8b-
8b-
=20
8.b-
16g
4g
8r}
{8g
=21
8.f
16f
8f
8g
8f
8e-
=22
4d
4.r}
{8b-
=23
8.b-
16b-
8b-
8b-
8dd
8b-
=24
8.b-
16g
4g
8r}
{8g
=25
8.f
16f
8f
8f
8g
8a
=26
4.b-
16dd
16cc
8b-}
{16a
16g
=27
8.g
16f
8f
8f
8g
8a
=28
4b-
8r}
==
!!!AGN: Scherz -, Moral - Lied, gesellschafts - kritisch
!!!ONB: ESAC (Essen Associative Code) Database: FINK
!!!AMT: simple triple
!!!AIN: vox
!!!EED: Helmut Schaffrath
!!!EEV: 1.0
*-
